X:548
T:Reel 548
M:4/4
K:Dmaj
L:1/8
dB|ADFD EDB,C|D2FA BcdB|ADFD EDB,E|| (3Bcd cA d2:||2AGFD EGFD|ABde fdec|Adcd fdcd|ABde fded|BABc dedB|ABde fded|BdAd BdAd|fdec dBAF|GEFD EDB,C|
